X:1
T:James Gibb editions
T:Pues que jamás olvidaros - Encina
T:#
%%score [ 1 2 3 4 ]
L:1/8
Q:1/4=160
M:4/4
K:G
V:1 treble nm="Soprano" snm="S"
V:2 treble nm="Alto" snm="A"
V:3 treble-8 nm="Tenor" snm="T"
V:4 bass nm="Bass" snm="B"
V:1
"^Pues que jamás olvidaros""^Juan del Encina\n(1468-1529)" G8 | G8 | (F6 G2) | (A4 B4- | %4
w: Pues|que|ja\- *|más *|
w: Mas|si|vos, *|por *|
 B2 A2 G2 F2) | E8 | (E8 | F8) | (E6 F2) | G4 G4 | (F8 | B8) | G8 | (G4 F2 E2) | (D4 G4- | %15
w: |ol-|vi\-||da\- *|ros no|pue\-||de|mi * *|co\- *|
w: |bien|a\-||ma\- *|ros qué-|reis||dar-|me * *|ga\- *|
 G2 FE) F4 | G8 | E4 E4 | E8 | F8 | G4 G4 | F8 | G4 A4 | B8- | B4 A2 G2 | (F4 B4- | B2 A2) (G4- | %27
w: * * * ra-|çon,|si me|fal-|ta|ga- lar-|dón,|¡ay, que|mal|* hi- cé~~en|mi\- *|* * ra\-|
w: * * * lar-|dón,|no di-|rá|mi|co- ra-|çon,|¡ay, que|mal|* hi- cé~~en|mi\- *|* * ra\-|
 G4 F4) | G8- | G8 || F8 | F8 | E8 | (D6 E2) | F4 (G4- | G4 F4) | G8 | B4 B4 | G8 | A4 G2 F2 | %40
w: |ros!||Se-|rá|tal|vis\- *|ta co\-||brar|gran do-|lor|y gran tris-|
w: |ros!||Se-|rá|tal|vis\- *|ta pe\-||nar,|si me|fa-|lle- ce ven-|
 (E6 F2 | G2 A2 B4- | B4 A2 G2) | F8- | F8 || F8 | F8 | E8 | (D6 E2) | F4 (G4- | G4 F4) | G8 | %52
w: tu\- *|||ra.||Se-|rá|tal|vis\- *|ta co\-||brar|
w: tu\- *|||ra.||Se-|rá|tal|vis\- *|ta pe\-||nar,|
 B4 B4 | G8 | A4 G2 F2 | (E6 F2 | G2 A2 B4- | B4 A2 G2) | F8- | F8 | G8 | G8 | (F6 G2) | (A4 B4- | %64
w: gran do-|lor|y gran tris-|tu\- *|||ra.||Pues|que|ja\- *|más *|
w: si me|fa-|lle- ce ven-|tu\- *|||ra.||Mas|si|vos, *|por *|
 B2 A2 G2 F2) | E8 | (E8 | F8) | (E6 F2) | G4 G4 | (F8 | B8) | G8 | (G4 F2 E2) | (D4 G4- | %75
w: |ol-|vi\-||da\- *|ros no|pue\-||de|mi * *|co\- *|
w: |bien|a\-||ma\- *|ros qué-|reis||dar-|me * *|ga\- *|
 G2 FE) F4 | G8 | E4 E4 | E8 | F8 | G4 G4 | F8 | G4 A4 | B8- | B4 A2 G2 | (F4 B4- | B2 A2) (G4- | %87
w: * * * ra-|çon,|si me|fal-|ta|ga- lar-|dón,|¡ay, que|mal\-|* hi- cé~~en|mi\- *|* * ra\-|
w: * * * lar-|dón,|no di-|rá|mi|co- ra-|çon,|¡ay, que|mal|* hi- cé~~en|mi\- *|* * ra\-|
 G4 F4) | G8- | G8 |] %90
w: |ros!||
w: |ros!||
V:2
 D8 | E8 | (A,8- | A,4 G,4) | G,8 | G,8 | ((C3 B,) G,4 | D8) | G,8 | G,4 G,4 | (A,8 | B,8) | C8 | %13
w: Pues|que|ja\-||más|ol-|vi\- * *||da-|ros no|pue\-||de|
w: Mas|si|vos,||por|bien|a\- * *||ma-|ros qué-|reis||dar-|
 C8 | (D4 C4) | D8 | B,8 | C4 C4 | G,8 | (D3 C B,2 A,2) | G,4 G,4 | A,8 | E6 F2 | G8- | G8 | %25
w: mi|co\- *|ra-|çon,|si me|fal-|ta * * *|ga- lar-|dón,|¡ay, que|mal||
w: me|ga\- *|lar-|dón,|no di-|rá|mi * * *|co- ra-|çon,|¡ay, que|mal||
 z4 (G3 F) | D4 E4 | D8 | [B,D]8- | [B,D]8 || D8 | D8 | (G,6 A,2) | (B,2 C2) D4- | D4 C4 | D8- | %36
w: hi\- *|cé~~en mi-|ra-|ros!||Se-|rá|tal *|vis\- * ta|* co-|brar|
w: hi\- *|cé~~en mi-|ra-|ros!||Se-|rá|tal *|vis\- * ta|* pe-|nar,|
 D8 | B,4 B,4 | C8 | A,8 | G,8 | (G,6 A,2) | B,8 | A,8- | A,8 || D8 | D8 | (G,6 A,2) | %48
w: |gran do-|lor|y|gran|tris\- *|tu-|ra;||Se-|rá|tal *|
w: |si me|fa-|lle-|ce|ven\- *|tu-|ra.||Se-|rá|tal *|
 (B,2 C2) D4- | D4 C4 | D8- | D8 | B,4 B,4 | C8 | A,8 | G,8 | (G,6 A,2) | B,8 | A,8- | A,8 | D8 | %61
w: vis\- * ta|* co-|brar||gran do-|lor|y|gran|tris\- *|tu-|ra;||Pues|
w: vis\- * ta|* pe-|nar,||si me|fa-|lle-|ce|ven\- *|tu-|ra.||Mas|
 E8 | (A,8- | A,4 G,4) | G,8 | G,8 | (C3 B, G,4 | D8) | G,8 | G,4 G,4 | (A,8 | B,8) | C8 | C8 | %74
w: que|ja\-||más|ol-|vi\- * *||da-|ros no|pue\-||de|mi|
w: si|vos,||por|bien|a\- * *||ma-|ros qué-|reis||dar-|me|
 (D4 C4) | D8 | B,8 | C4 C4 | G,8 | (D3 C B,2 A,2) | G,4 G,4 | A,8 | E6 F2 | G8- | G8 | z4 (G3 F) | %86
w: co\- *|ra-|çon,|si me|fal-|ta * * *|ga- lar-|dón,|¡ay, que|mal||hi\- *|
w: ga\- *|lar-|dón,|no di-|rá|mi * * *|co- ra-|çon,|¡ay, que|mal||hi\- *|
 D4 E4 | D8 | [B,D]8- | [B,D]8 |] %90
w: cé~~en mi-|ra-|ros!||
w: cé~~en mi-|ra-|ros!||
V:3
 (G6 A2) | B4 c4 | (d8- | d8 | B8) | (c4 B2 A2) | (G4 c4 | A4 B4) | c8 | B4 c4 | d8- | d8 | e8 | %13
w: Pues *|que ja-|más|||ol\- * *|vi\- *||da-|ros no|pue\-||de|
w: Mas *|si vos,|por|||bien * *|a\- *||ma-|ros qué-|reis||dar-|
 (e4 d2 c2) | (B4 G4) | A8 | G8 | G4 G4 | c8 | A4 (d4- | d2 ^cB) c4 | d8 | B4 c4 | d8- | d8 | d8 | %26
w: mi * *|co\- *|ra-|çon,|si me|fal-|ta ga\-|* * * lar-|dón,|¡ay, que|mal||hi-|
w: me * *|ga\- *|lar-|dón,|no di-|rá|mi co\-|* * * ra-|çon,|¡ay, que|mal||hi-|
 B4 c4 | A8 | G8- | G8 || A8 | (A4 B4) | c8 | B8 | A4 (G4 | A8) | G8 | d4 d4 | e8 | c8 | c8 | %41
w: cé~~en mi-|ra-|ros!||Se-|rá *|tal|vis-|ta co\-||brar|gran do-|lor|y|gran|
w: cé~~en mi-|ra-|ros!||Se-|rá *|tal|vis-|ta pe\-||nar,|si me|fa-|lle-|ce|
 (B6 c2) | d8 | d8- | d8 || A8 | (A4 B4) | c8 | B8 | A4 (G4 | A8 | G8 | d4 d4 | e8 | c8 | c8 | %56
w: tris\- *|tu-|ra.||Se-|rá *|tal|vis-|ta co\-||brar|gran do-|lor|y|gran|
w: ven\- *|tu-|ra.||Se-|rá *|tal|vis-|ta pe\-||nar,|si me|fa-|lle-|ce|
 (B6 c2) | d8 | d8- | d8 | G6 A2) | B4 c4 | (d8- | d8 | B8) | (c4 B2 A2) | (G4 c4 | A4 B4) | c8 | %69
w: tris\- *|tu-|ra.||Pues *|que ja-|más|||ol\- * *|vi\- *||da-|
w: ven\- *|tu-|ra.||Mas *|si vos,|por|||bien * *|a\- *||ma-|
 B4 c4 | d8- | d8 | e8 | (e4 d2 c2) | (B4 G4) | A8 | G8 | G4 G4 | c8 | A4 (d4- | d2 ^cB) c4 | d8 | %82
w: ros no|pue\-||de|mi * *|co\- *|ra-|çon,|si me|fal-|ta ga\-|* * * lar-|dón,|
w: ros qué-|reis||dar-|me * *|ga\- *|lar-|dón,|no di-|rá|mi co\-|* * * ra-|çon,|
 B4 c4 | d8- | d8 | d8 | B4 c4 | A8 | G8- | G8 |] %90
w: ¡ay, que|mal||hi-|ce~~en mi-|ra-|ros!||
w: ¡ay, que|mal||hi-|cé~~en mi-|ra-|ros!||
V:4
 G,8 | E,8 | (D,6 E,2) | (F,4 G,4- | G,2 F,2 E,2 D,2) | C,8 | (C,8 | D,8) | (C,6 D,2) | E,4 E,4 | %10
w: Pues|que|ja\- *|más *||ol-|vi\-||da\- *|ros no|
w: Mas|si|vos, *|por *||bien|a\-||ma\- *|ros qué-|
 (D,8 | G,8) | C,8 | C,8 | (G,4 E,4) | D,8 | G,,8 | C,4 C,4 | C,8 | D,8 | E,4 E,4 | D,8 | E,4 A,4 | %23
w: pue\-||de|mi|co\- *|ra-|çon,|si me|fal-|ta|ga- lar-|dón,|¡ay, que|
w: reis||dar-|me|ga\- *|lar-|dón|no di-|rá|mi|co- ra-|çon,|¡ay, que|
 G,8- | G,4 F,2 E,2 | (D,4 G,4- | G,4 C,4) | D,8 | G,,8- | G,,8 || D,8- | D,8 | C,8 | %33
w: mal|* hi- cé~~en|mi\- *||ra-|ros!||Se\-||rá|
w: mal|* hi- cé~~en|mi\- *||ra-|ros!||Se\-||rá|
 G,4 (F,2 E,2) | D,4 E,4 | D,8 | z4 (G,4- | G,2 F,2) G,4 | C,8 | =F,4 E,2 D,2 | (C,6 D,2 | %41
w: tal vis\- *|ta co-|brar|gran|* * do-|lor|y gran tris-|tu\- *|
w: tal vis\- *|ta pe-|nar,|si|* * me|fa-|lle- ce ven-|tu\- *|
 E,2 F,2 G,4- | G,4 F,2 E,2) | D,8- | D,8 || D,8- | D,8 | C,8 | G,4 (F,2 E,2) | D,4 E,4 | D,8 | %51
w: ||ra.||Se\-||rá|tal vis\- *|ta co-|brar|
w: ||ra.||Se\-||rá|tal vis\- *|ta pe-|nar,|
 z4 (G,4- | G,2 F,2) G,4 | C,8 | =F,4 E,2 D,2 | (C,6- D,2 | E,2 F,2 G,4- | G,4 F,2 E,2) | D,8- | %59
w: gran|* * do-|lor|y gran tris-|tu\- *|||ra.|
w: si|* * me|fa-|Ile- ce ven-|tu\- *|||ra.|
 D,8 | G,8 | E,8 | (D,6 E,2) | (F,4 G,4- | G,2 F,2 E,2 D,2) | C,8 | (C,8 | D,8) | (C,6 D,2) | %69
w: |Pues|que|ja\- *|más *||ol-|vi\-||da\- *|
w: |Mas|si|vos, *|por *||bien|a\-||ma\- *|
 E,4 E,4 | (D,8 | G,8) | C,8 | C,8 | (G,4 E,4) | D,8 | G,,8 | C,4 C,4 | C,8 | D,8 | E,4 E,4 | D,8 | %82
w: ros no|pue\-||de|mi|co\- *|ra-|çon,|si me|fal-|ta|ga- lar-|dón,|
w: ros qué-|reis||dar-|me|ga\- *|lar-|dón|no di-|rá|mi|co- ra-|on,|
 E,4 A,4 | G,8- | G,4 F,2 E,2 | (D,4 G,4- | G,4 C,4) | D,8 | G,,8- | G,,8 |] %90
w: ¡ay, que|mal|* hi- cé~~en|mi\- *||ra-|ros!||
w: ¡çay, que|mal|* hi- cé~~en|mi\- *||ra-|ros!||

